X:13
T:Iron Legs (waltz)
C:trad. English?
M:3/4
L:1/8
Z:abc by Si Garbutt
Z:learnt from Pete Shaw, Peterborough
Z:who got it from the Wide Glide Band, Ely
Z:who also play it as a polka
K:G
dc | B3 c dB | A4 dc | B3 c AB | G2 B2 d2 | e4 f2 | g4 ag | f3 g ef | d4 dc |
B3 c dB | A4 dc | B3 c AB | G2 B2 d2 | e4 g2 | b3 a gf | g3 a gf | g4 :|
ga | b3 c' bc' | a3 b ab | g3 a ga | f3 g fg | e3 f ef | d3 e de | c3 B cd | B4 d2 |
e3 f ef | d4 d2 | c3 B cd | B4 d2 | e4 g2 | b3 a gf |1 g3 a gf | g4 :|2 g2 d2 B2 | G4 ||

